micro_2/src/phone_w_wifi.svg

<svg xmlns="http://www.w3.org/2000/svg" xmlns:xlink="http://www.w3.org/1999/xlink" width="640" height="640"><defs><path d="M407.44 33.4l1.46.15 1.44.21 1.41.26 1.4.32 1.37.37 1.36.43 1.32.48 1.3.52 1.28.58 1.25.62 1.22.67 1.19.72 1.16.76 1.12.8 1.1.85 1.06.88 1.02.92.99.96.95 1 .91 1.03.87 1.07.84 1.1.79 1.13.74 1.16.7 1.19.66 1.22.61 1.24.57 1.27.51 1.3.47 1.31.41 1.34.37 1.36.31 1.37.26 1.4.2 1.41.14 1.43.09 1.44.03 1.45v373.25l-.03 1.45-.09 1.44-.14 1.43-.2 1.41-.26 1.39-.31 1.38-.37 1.36-.41 1.34-.47 1.31-.51 1.3-.57 1.27-.61 1.24-.66 1.22-.7 1.19-.74 1.16-.79 1.13-.84 1.1-.87 1.06-.91 1.04-.95.99-.99.96-1.02.93-1.06.88-1.1.85-1.12.8-1.16.76-1.19.71-1.22.67-1.25.63-1.28.57-1.3.53-1.32.48-1.36.42-1.37.38-1.4.32-1.41.26-1.44.21-1.46.15-1.47.09-1.49.03H235.52l-1.45-.03-1.44-.09-1.43-.14-1.41-.21-1.4-.25-1.37-.31-1.36-.37-1.34-.41-1.31-.47-1.3-.51-1.27-.57-1.24-.61-1.22-.66-1.19-.7-1.16-.75-1.13-.79-1.1-.83-1.07-.87-1.03-.91-1-.95-.96-.99-.92-1.03-.88-1.06-.85-1.09-.8-1.13-.76-1.16-.72-1.19-.67-1.21-.62-1.25-.58-1.28-.52-1.3-.48-1.33-.43-1.35-.37-1.37-.32-1.4-.26-1.42-.21-1.43-.15-1.46-.09-1.47-.03-1.49V69.12l.03-1.45.09-1.44.14-1.43.2-1.41.26-1.4.31-1.37.37-1.36.41-1.34.47-1.31.51-1.3.57-1.27.61-1.24.66-1.22.7-1.19.75-1.16.78-1.13.84-1.1.87-1.07.91-1.03.95-1 .99-.96 1.02-.92 1.06-.88 1.1-.85 1.13-.8 1.15-.76 1.19-.72 1.22-.67 1.25-.62 1.28-.58 1.3-.52 1.32-.48 1.36-.43 1.37-.37 1.4-.32 1.41-.26 1.44-.21 1.46-.15 1.47-.09 1.49-.03h168.96l1.49.03 1.47.09zm-90.12 386.61l-1.3.21-1.28.28-1.25.36-1.22.44-1.19.51-1.14.57-1.11.64-1.07.7-1.03.76-.97.82-.93.88-.87.92-.82.98-.76 1.02-.71 1.07-.63 1.11-.58 1.15-.5 1.18-.44 1.22-.36 1.25-.29 1.28-.2 1.31-.13 1.32-.04 1.35.04 1.35.13 1.33.2 1.31.29 1.28.36 1.25.44 1.22.5 1.18.58 1.15.63 1.11.71 1.07.76 1.02.82.98.87.92.93.88.97.82 1.03.76 1.07.7 1.11.64 1.14.57 1.19.51 1.22.43 1.25.37 1.28.28 1.3.21 1.33.13 1.35.04 1.35-.04 1.33-.12 1.3-.2 1.28-.27 1.25-.35 1.22-.42 1.19-.49 1.14-.55 1.11-.62 1.07-.68 1.03-.75.97-.8.93-.86.87-.91.82-.96.76-1.02.71-1.06.63-1.11.58-1.16.5-1.2.44-1.23.36-1.28.29-1.3.2-1.35.13-1.37.04-1.41-.04-1.35-.13-1.32-.2-1.31-.29-1.28-.36-1.25-.44-1.22-.5-1.18-.58-1.15-.63-1.11-.71-1.07-.76-1.02-.82-.98-.87-.92-.93-.88-.97-.82-1.03-.76-1.07-.7-1.11-.64-1.14-.57-1.19-.51-1.22-.44-1.25-.36-1.28-.28-1.3-.21-1.33-.13-1.35-.04-1.35.04-1.33.13zm-100.23-15.02h206.33V98.82H217.09v306.17zM280.3 61.45l-.27.01-.26.02-.26.04-.26.04-.25.06-.25.06-.24.07-.23.08-.23.09-.23.1-.22.1-.21.12-.21.12-.2.13-.19.14-.19.14-.18.15-.18.17-.16.16-.16.18-.16.18-.14.19-.14.19-.13.2-.12.21-.12.21-.1.22-.1.22-.09.24-.08.23-.07.24-.06.25-.06.25-.04.26-.03.26-.03.26-.01.27-.01.27.01.28.01.27.03.26.03.26.04.26.06.25.06.25.07.24.08.23.09.23.1.23.1.22.12.21.12.21.13.2.14.19.14.19.16.18.16.18.16.16.18.16.18.16.19.14.19.14.2.13.21.12.21.12.22.1.23.1.23.09.23.08.24.07.25.06.25.06.26.04.26.03.26.03.27.01.28.01h79.36l.27-.01.27-.01.26-.03.26-.03.26-.04.25-.06.25-.06.24-.07.23-.08.24-.09.22-.1.22-.1.21-.12.21-.12.2-.13.19-.14.19-.14.18-.16.18-.16.16-.16.17-.18.15-.18.14-.19.14-.19.13-.2.12-.21.12-.21.1-.22.1-.23.09-.23.08-.23.07-.24.06-.25.06-.25.04-.26.04-.26.02-.26.01-.27.01-.28-.01-.27-.01-.27-.02-.26-.04-.26-.04-.26-.06-.25-.06-.25-.07-.24-.08-.23-.09-.24-.1-.22-.1-.22-.12-.21-.12-.21-.13-.2-.14-.19-.14-.19-.15-.18-.17-.18-.16-.16-.18-.17-.18-.15-.19-.14-.19-.14-.2-.13-.21-.12-.21-.12-.22-.1-.22-.1-.24-.09-.23-.08-.24-.07-.25-.06-.25-.06-.26-.04-.26-.04-.26-.02-.27-.01-.27-.01h-79.36l-.28.01z" id="a"/><path d="M327.43 186.73c2.1.1 4.91.3 8.19.73 6.92.94 13.73 2.6 20.33 4.95 9.37 3.35 18.25 8.01 26.39 13.85 8.66 6.2 16.42 13.65 23.04 22.11 2.52 3.18 2.4 5.88-.35 8.83l-5.41 5.81c-1.67 1.89-4.52 2.03-6.35.3-.22-.2-.42-.43-.59-.67-10.19-13.39-22.79-23.54-38.13-29.9-36.7-15.21-78.27-3.61-103.14 28.69-3.57 4.63-4.94 4.7-8.93.43-1.57-1.68-3.15-3.35-4.7-5.05-2.05-2.26-2.15-5.74-.24-8.13 5.59-7.01 17.5-20.94 35.25-29.92 0 0 15.51-7.85 31.22-10.74 2.47-.44 4.92-.79 4.92-.79 1.18-.15 3.17-.41 5.8-.57 1.74-.11 3.86-.18 6.29-.15 1.28.05 5.13.18 6.41.22z" id="b"/><path d="M379.95 256.96c1.79 2.45 1.53 5.56-.55 7.84a402.81 402.81 0 0 1-6.23 6.69c-2.3 2.44-4.43 2.27-6.27-.56-4.98-7.71-11.3-13.95-19.13-18.5-24.38-14.19-54.81-6.56-70.85 17.7-.36.61-.75 1.18-1.18 1.73-1.4 1.63-3.44 1.82-4.94.3-2.45-2.5-4.86-5.06-7.17-7.7-1.87-2.15-1.91-5.19-.19-7.59 11.73-16.2 27.05-26.53 46.46-30.11 1.39-.25 2.79-.49 4.19-.63 2.54-.32 5.1-.47 7.66-.45 24.31.66 43.62 11.29 58.2 31.28z" id="c"/><path d="M356.35 282.06c1.94 2.36 1.81 5.45-.29 7.78-2.16 2.4-4.37 4.74-6.6 7.06-1.95 2.05-4.04 1.93-5.74-.36-1.45-2.03-3.1-3.88-4.95-5.53-11.69-9.99-28.35-8.28-37.92 3.89-.43.54-.82 1.12-1.25 1.66-1.75 2.23-3.81 2.36-5.77.3-3.27-3.45-5.82-6.24-6.47-6.93-2.28-2.5-2.32-5.56-.14-8.17 9.09-10.89 20.57-16.59 34.76-16.89 13.84.35 25.33 6.16 34.37 17.19z" id="d"/></defs><use xlink:href="#a" fill="#000100"/><use xlink:href="#a" fill-opacity="0" stroke="#000" stroke-opacity="0"/><use xlink:href="#b" fill="#8a2a76"/><use xlink:href="#b" fill-opacity="0" stroke="#000" stroke-opacity="0"/><g><use xlink:href="#c" fill="#8a2a76"/><use xlink:href="#c" fill-opacity="0" stroke="#000" stroke-opacity="0"/></g><g><use xlink:href="#d" fill="#8a2a76"/><use xlink:href="#d" fill-opacity="0" stroke="#000" stroke-opacity="0"/></g></svg>

<?xml version="1.0" encoding="UTF-8" standalone="no"?>
<!DOCTYPE svg PUBLIC "-//W3C//DTD SVG 1.1//EN" "http://www.w3.org/Graphics/SVG/1.1/DTD/svg11.dtd">
<svg version="1.1" xmlns="http://www.w3.org/2000/svg" xmlns:xlink="http://www.w3.org/1999/xlink" preserveAspectRatio="xMidYMid meet" viewBox="0 0 640 640" width="640" height="640"><defs><path d="M407.44 33.4L408.9 33.55L410.34 33.76L411.75 34.02L413.15 34.34L414.52 34.71L415.88 35.14L417.2 35.62L418.5 36.14L419.78 36.72L421.03 37.34L422.25 38.01L423.44 38.73L424.6 39.49L425.72 40.29L426.82 41.14L427.88 42.02L428.9 42.94L429.89 43.9L430.84 44.9L431.75 45.93L432.62 47L433.46 48.1L434.25 49.23L434.99 50.39L435.69 51.58L436.35 52.8L436.96 54.04L437.53 55.31L438.04 56.61L438.51 57.92L438.92 59.26L439.29 60.62L439.6 61.99L439.86 63.39L440.06 64.8L440.2 66.23L440.29 67.67L440.32 69.12L440.32 442.37L440.29 443.82L440.2 445.26L440.06 446.69L439.86 448.1L439.6 449.49L439.29 450.87L438.92 452.23L438.51 453.57L438.04 454.88L437.53 456.18L436.96 457.45L436.35 458.69L435.69 459.91L434.99 461.1L434.25 462.26L433.46 463.39L432.62 464.49L431.75 465.55L430.84 466.59L429.89 467.58L428.9 468.54L427.88 469.47L426.82 470.35L425.72 471.2L424.6 472L423.44 472.76L422.25 473.47L421.03 474.14L419.78 474.77L418.5 475.34L417.2 475.87L415.88 476.35L414.52 476.77L413.15 477.15L411.75 477.47L410.34 477.73L408.9 477.94L407.44 478.09L405.97 478.18L404.48 478.21L235.52 478.21L234.07 478.18L232.63 478.09L231.2 477.95L229.79 477.74L228.39 477.49L227.02 477.18L225.66 476.81L224.32 476.4L223.01 475.93L221.71 475.42L220.44 474.85L219.2 474.24L217.98 473.58L216.79 472.88L215.63 472.13L214.5 471.34L213.4 470.51L212.33 469.64L211.3 468.73L210.3 467.78L209.34 466.79L208.42 465.76L207.54 464.7L206.69 463.61L205.89 462.48L205.13 461.32L204.41 460.13L203.74 458.92L203.12 457.67L202.54 456.39L202.02 455.09L201.54 453.76L201.11 452.41L200.74 451.04L200.42 449.64L200.16 448.22L199.95 446.79L199.8 445.33L199.71 443.86L199.68 442.37L199.68 69.12L199.71 67.67L199.8 66.23L199.94 64.8L200.14 63.39L200.4 61.99L200.71 60.62L201.08 59.26L201.49 57.92L201.96 56.61L202.47 55.31L203.04 54.04L203.65 52.8L204.31 51.58L205.01 50.39L205.76 49.23L206.54 48.1L207.38 47L208.25 45.93L209.16 44.9L210.11 43.9L211.1 42.94L212.12 42.02L213.18 41.14L214.28 40.29L215.41 39.49L216.56 38.73L217.75 38.01L218.97 37.34L220.22 36.72L221.5 36.14L222.8 35.62L224.12 35.14L225.48 34.71L226.85 34.34L228.25 34.02L229.66 33.76L231.1 33.55L232.56 33.4L234.03 33.31L235.52 33.28L404.48 33.28L405.97 33.31L407.44 33.4ZM317.32 420.01L316.02 420.22L314.74 420.5L313.49 420.86L312.27 421.3L311.08 421.81L309.94 422.38L308.83 423.02L307.76 423.72L306.73 424.48L305.76 425.3L304.83 426.18L303.96 427.1L303.14 428.08L302.38 429.1L301.67 430.17L301.04 431.28L300.46 432.43L299.96 433.61L299.52 434.83L299.16 436.08L298.87 437.36L298.67 438.67L298.54 439.99L298.5 441.34L298.54 442.69L298.67 444.02L298.87 445.33L299.16 446.61L299.52 447.86L299.96 449.08L300.46 450.26L301.04 451.41L301.67 452.52L302.38 453.59L303.14 454.61L303.96 455.59L304.83 456.51L305.76 457.39L306.73 458.21L307.76 458.97L308.83 459.67L309.94 460.31L311.08 460.88L312.27 461.39L313.49 461.82L314.74 462.19L316.02 462.47L317.32 462.68L318.65 462.81L320 462.85L321.35 462.81L322.68 462.69L323.98 462.49L325.26 462.22L326.51 461.87L327.73 461.45L328.92 460.96L330.06 460.41L331.17 459.79L332.24 459.11L333.27 458.36L334.24 457.56L335.17 456.7L336.04 455.79L336.86 454.83L337.62 453.81L338.33 452.75L338.96 451.64L339.54 450.48L340.04 449.28L340.48 448.05L340.84 446.77L341.13 445.47L341.33 444.12L341.46 442.75L341.5 441.34L341.46 439.99L341.33 438.67L341.13 437.36L340.84 436.08L340.48 434.83L340.04 433.61L339.54 432.43L338.96 431.28L338.33 430.17L337.62 429.1L336.86 428.08L336.04 427.1L335.17 426.18L334.24 425.3L333.27 424.48L332.24 423.72L331.17 423.02L330.06 422.38L328.92 421.81L327.73 421.3L326.51 420.86L325.26 420.5L323.98 420.22L322.68 420.01L321.35 419.88L320 419.84L318.65 419.88L317.32 420.01ZM217.09 404.99L423.42 404.99L423.42 98.82L217.09 98.82L217.09 404.99ZM280.3 61.45L280.03 61.46L279.77 61.48L279.51 61.52L279.25 61.56L279 61.62L278.75 61.68L278.51 61.75L278.28 61.83L278.05 61.92L277.82 62.02L277.6 62.12L277.39 62.24L277.18 62.36L276.98 62.49L276.79 62.63L276.6 62.77L276.42 62.92L276.24 63.09L276.08 63.25L275.92 63.43L275.76 63.61L275.62 63.8L275.48 63.99L275.35 64.19L275.23 64.4L275.11 64.61L275.01 64.83L274.91 65.05L274.82 65.29L274.74 65.52L274.67 65.76L274.61 66.01L274.55 66.26L274.51 66.52L274.48 66.78L274.45 67.04L274.44 67.31L274.43 67.58L274.44 67.86L274.45 68.13L274.48 68.39L274.51 68.65L274.55 68.91L274.61 69.16L274.67 69.41L274.74 69.65L274.82 69.88L274.91 70.11L275.01 70.34L275.11 70.56L275.23 70.77L275.35 70.98L275.48 71.18L275.62 71.37L275.76 71.56L275.92 71.74L276.08 71.92L276.24 72.08L276.42 72.24L276.6 72.4L276.79 72.54L276.98 72.68L277.18 72.81L277.39 72.93L277.6 73.05L277.82 73.15L278.05 73.25L278.28 73.34L278.51 73.42L278.75 73.49L279 73.55L279.25 73.61L279.51 73.65L279.77 73.68L280.03 73.71L280.3 73.72L280.58 73.73L359.94 73.73L360.21 73.72L360.48 73.71L360.74 73.68L361 73.65L361.26 73.61L361.51 73.55L361.76 73.49L362 73.42L362.23 73.34L362.47 73.25L362.69 73.15L362.91 73.05L363.12 72.93L363.33 72.81L363.53 72.68L363.72 72.54L363.91 72.4L364.09 72.24L364.27 72.08L364.43 71.92L364.6 71.74L364.75 71.56L364.89 71.37L365.03 71.18L365.16 70.98L365.28 70.77L365.4 70.56L365.5 70.34L365.6 70.11L365.69 69.88L365.77 69.65L365.84 69.41L365.9 69.16L365.96 68.91L366 68.65L366.04 68.39L366.06 68.13L366.07 67.86L366.08 67.58L366.07 67.31L366.06 67.04L366.04 66.78L366 66.52L365.96 66.26L365.9 66.01L365.84 65.76L365.77 65.52L365.69 65.29L365.6 65.05L365.5 64.83L365.4 64.61L365.28 64.4L365.16 64.19L365.03 63.99L364.89 63.8L364.75 63.61L364.6 63.43L364.43 63.25L364.27 63.09L364.09 62.92L363.91 62.77L363.72 62.63L363.53 62.49L363.33 62.36L363.12 62.24L362.91 62.12L362.69 62.02L362.47 61.92L362.23 61.83L362 61.75L361.76 61.68L361.51 61.62L361.26 61.56L361 61.52L360.74 61.48L360.48 61.46L360.21 61.45L359.94 61.44L280.58 61.44L280.3 61.45Z" id="b2yaaAAWGp"></path><path d="M327.43 186.73C329.53 186.83 332.34 187.03 335.62 187.46C342.54 188.4 349.35 190.06 355.95 192.41C365.32 195.76 374.2 200.42 382.34 206.26C391 212.46 398.76 219.91 405.38 228.37C407.9 231.55 407.78 234.25 405.03 237.2C402.33 240.1 400.16 242.43 399.62 243.01C397.95 244.9 395.1 245.04 393.27 243.31C393.05 243.11 392.85 242.88 392.68 242.64C382.49 229.25 369.89 219.1 354.55 212.74C317.85 197.53 276.28 209.13 251.41 241.43C247.84 246.06 246.47 246.13 242.48 241.86C240.91 240.18 239.33 238.51 237.78 236.81C235.73 234.55 235.63 231.07 237.54 228.68C243.13 221.67 255.04 207.74 272.79 198.76C272.79 198.76 288.3 190.91 304.01 188.02C306.48 187.58 308.93 187.23 308.93 187.23C310.11 187.08 312.1 186.82 314.73 186.66C316.47 186.55 318.59 186.48 321.02 186.51C322.3 186.56 326.15 186.69 327.43 186.73Z" id="d1sEsdzcMX"></path><path d="M379.95 256.96C381.74 259.41 381.48 262.52 379.4 264.8C377.33 267.08 375.26 269.29 373.17 271.49C370.87 273.93 368.74 273.76 366.9 270.93C361.92 263.22 355.6 256.98 347.77 252.43C323.39 238.24 292.96 245.87 276.92 270.13C276.56 270.74 276.17 271.31 275.74 271.86C274.34 273.49 272.3 273.68 270.8 272.16C268.35 269.66 265.94 267.1 263.63 264.46C261.76 262.31 261.72 259.27 263.44 256.87C275.17 240.67 290.49 230.34 309.9 226.76C311.29 226.51 312.69 226.27 314.09 226.13C316.63 225.81 319.19 225.66 321.75 225.68C346.06 226.34 365.37 236.97 379.95 256.96Z" id="e1EbDqVXUY"></path><path d="M356.35 282.06C358.29 284.42 358.16 287.51 356.06 289.84C353.9 292.24 351.69 294.58 349.46 296.9C347.51 298.95 345.42 298.83 343.72 296.54C342.27 294.51 340.62 292.66 338.77 291.01C327.08 281.02 310.42 282.73 300.85 294.9C300.42 295.44 300.03 296.02 299.6 296.56C297.85 298.79 295.79 298.92 293.83 296.86C290.56 293.41 288.01 290.62 287.36 289.93C285.08 287.43 285.04 284.37 287.22 281.76C296.31 270.87 307.79 265.17 321.98 264.87C335.82 265.22 347.31 271.03 356.35 282.06Z" id="bwdQX3iBx"></path></defs><g><g><g><use xlink:href="#b2yaaAAWGp" opacity="1" fill="#000100" fill-opacity="1"></use><g><use xlink:href="#b2yaaAAWGp" opacity="1" fill-opacity="0" stroke="#000000" stroke-width="1" stroke-opacity="0"></use></g></g><g><use xlink:href="#d1sEsdzcMX" opacity="1" fill="#8a2a76" fill-opacity="1"></use><g><use xlink:href="#d1sEsdzcMX" opacity="1" fill-opacity="0" stroke="#000000" stroke-width="1" stroke-opacity="0"></use></g></g><g><use xlink:href="#e1EbDqVXUY" opacity="1" fill="#8a2a76" fill-opacity="1"></use><g><use xlink:href="#e1EbDqVXUY" opacity="1" fill-opacity="0" stroke="#000000" stroke-width="1" stroke-opacity="0"></use></g></g><g><use xlink:href="#bwdQX3iBx" opacity="1" fill="#8a2a76" fill-opacity="1"></use><g><use xlink:href="#bwdQX3iBx" opacity="1" fill-opacity="0" stroke="#000000" stroke-width="1" stroke-opacity="0"></use></g></g></g></g></svg>
